X:1
T:Title
%%score { ( 1 4 ) | ( 2 3 ) }
L:1/8
M:3/4
K:G
V:1 treble nm="Grand Piano"
V:4 treble 
V:2 bass 
V:3 bass 
V:1
 z2 z2[Q:1/4=100] GA | [DB]3 A B2 | G4 AB | [Ec]2 G2 A2 | [DB]4 Bc | [Bd]3 d d2 | %6
 [ce]2 [Bd]2 [GB]2 | A4- [A-c][AB] | A4 Bc | [Bd]3 ^c d2 | [GB]4 AB | [Ec]2 G2 A2 | [DB]4 DD | %13
[M:7/8] [CE]2 c3 EE |[M:15/16] [B,D]->[B,D]B- B3- B/A |[M:3/4] [G,B,G]6- |[M:2/4] [G,B,G]4 | %17
[M:1/4] Bc |[M:3/4] [Bd]3 ^c d2 | [GB]4 AB | [Ec]2 G2 A2 | [DB]4 Bc | [Bd]3 d d2 | [ce]2 d2 B2 | %24
 A4- [A-c][AB] | A4 Bc | [Bd]3 ^c d2 | [GB]4 AB | [Ec]2 G2 A2 | %29
 [DB]4 DD[Q:1/4=97][Q:1/4=94][Q:1/4=91][Q:1/4=88][Q:1/4=84][Q:1/4=81][Q:1/4=78] | [CE]2 c2 EE | %31
 [B,D]2 B3 A | [G,B,G]6- |[M:2/4] [G,B,G]4 |] %34
V:2
 z2 z2 B,C | z2 z C D2 | [G,B,]4 CD | z2 E2 ^D2 | [G,,G,]4[K:treble] GA | z2 z B B2 | %6
 [G,B,D]4 [G,B,D]2 | [D,F,A,]6- | [D,F,A,]4[K:treble] GA | z2 z[K:treble] _B =B2 | %10
 [G,,G,]4[K:treble] F=F | z2 E2 ^D2 | [G,,G,]4 B,B, |[M:7/8] z2 E3 CC | %14
[M:15/16] z3/2 z/ D- D3- D/C |[M:3/4] G,,6- |[M:2/4] G,,4 |[M:1/4][K:treble] GA | %18
[M:3/4][K:bass] z2 z[K:treble] _B =B2 | [G,,G,]4[K:treble] F=F | z2 E2 ^D2 | %21
 [G,,G,]4[K:treble] GA | z2 z B B2 | z2 B2 G2 | [D,F,A,]6- | [D,F,A,]4[K:treble] GA | %26
 z2 z[K:treble] _B =B2 | [G,,G,]4[K:treble] F=F | z2 E2 ^D2 | [G,,G,]4 B,B, | z2 E2 CC | z2 D3 C | %32
 G,,6- |[M:2/4] G,,4 |] %34
V:3
 x6 | [G,,G,]4 z2 | x6 | C,4 z2 | x4[K:treble] x2 | [G,B,D]4 z2 | x6 | x6 | x4[K:treble] x2 | %9
 [G,,G,]4[K:treble] z2 | x4[K:treble] x2 | [C,,C,]4 z2 | x6 |[M:7/8] [C,,C,]-[C,,C,]- [C,,C,]3 z2 | %14
[M:15/16] [D,,D,]3- [D,,D,] z/ z3 |[M:3/4] x6 |[M:2/4] x4 |[M:1/4][K:treble] x2 | %18
[M:3/4][K:bass] [G,,G,]4[K:treble] z2 | x4[K:treble] x2 | [C,,C,]4 z2 | x4[K:treble] x2 | %22
 [G,B,D]4 z2 | [G,B,D]4 z2 | x6 | x4[K:treble] x2 | [G,,G,]4[K:treble] z2 | x4[K:treble] x2 | %28
 [C,,C,]4 z2 | x6 | [C,,C,]4 z2 | [D,,D,]4 z2 | x6 |[M:2/4] x4 |] %34
V:4
 x6 | x6 | x6 | x6 | x6 | x6 | x6 | F6- | F4 z2 | x6 | x6 | x6 | x6 |[M:7/8] x7 |[M:15/16] x15/2 | %15
[M:3/4] x6 |[M:2/4] x4 |[M:1/4] x2 |[M:3/4] x6 | x6 | x6 | x6 | x6 | x6 | F6- | F4 z2 | x6 | x6 | %28
 x6 | x6 | x6 | x6 | x6 |[M:2/4] x4 |] %34

